X: 10033
T: Diane's Happiness
R: reel
M: 4/4
K: Gmajor
GA|:BGAG E2DB,|DEGA BAAG|BGAG E2DB,|DEGA BGGA|
BGAG E2DB,|DEGA BABd|eged BGAG|1 E2DE G2GA:|2 E2DE G2Bc||
|:dBeB d2Bc|dBeB dBAB|dBeB dBAG|1 2 E2DE G2Bc:|[3 E2DE G2z2||

